X: 392
T: Piperana
O: Serbia
M: 2/8
L: 1/16
K: Gm
|z2F2|GABA|BAG2|F2G2-|G2z2|d2c2-|czF2|GABA|BAGF|G2F2|G4|F2G2-|G4|



